X:23
T:Anthropology - Parker - Nikora
C:
N:TablEdited by Jim Nikora
L:1/8
Q:1/4=200
M:4/4
K:Bb
|: "Bb6"Bd c=B "G7"e_d =df | "Cm7"z3e2f e2 | "Bb6"zd ed "Gm7"cA Bd | "C7"cG BA4B | 
"Fm7"z2 GB "Bb7"dB2=e | "Eb7"ze2_G "Ab7"zB cd |1 "Dm7"f3=B2_a2_g | "Cm7"ge BG "F7"df2F :|2 "Dm7"ef df2d eG |] 
"Cm7"cG "F7"Bc4_g |] "D7"z2 g_a =a_g =ga | _gd6=e | "G7"f=e d_d e=d =BA | z3a2a2a | 
"C7"zg =ed z3A | c/d/c/G/ Bc4e | "F7"z2 dc =Bd cG | c2 BA4F | "Bb6"Bd c=B "G7"e_d =df | 
"Cm7"z3e2f e2 | "Bb6"zd ed "Gm7"cA Bd | "C7"cG BA4B | "Fm7"z2 GB "Bb7"dB2=e | 
"Eb7"ze2_G "Ab7"zB cd | "Dm7"ef df2d eG | "Cm7"cB "F7"AB4z | 


